X:1
T:English Suite VI Gavotte I & II
T:BWV 811
T:J. S. Bach
%%score { ( 1 2 ) | ( 3 4 ) }
L:1/8
M:4/4
K:F
V:1 treble nm="Harp"
V:2 treble 
V:3 bass 
V:4 bass 
V:1
 a2 a2 | b/4a/4b/4a/4b/4a/4b/4a/4 b/4a/4b/4a/4 g/a/ b2 a2 | g4 g2 g2 | gfga fefg | %4
 f/4e/4f/4e/4f/4e/4f/4e/4 d2 a2 a2 | b/4a/4b/4a/4b/4a/4b/4a/4 b/4a/4b/4a/4 g/a/ b2 a2 | %6
 g3 a/b/ c'bag | fedb a/4g/4a/4g/4a/4g/4a/4g/4 a/4g/4a/4g/4 f/g/ | a4 a2 a2 | %9
 b/4a/4b/4a/4b/4a/4b/4a/4 b/4a/4b/4a/4 g/a/ b2 a2 | g4 g2 g2 | gfga fefg | %12
 f/4e/4f/4e/4f/4e/4f/4e/4 d2 a2 a2 | b/4a/4b/4a/4b/4a/4b/4a/4 b/4a/4b/4a/4 g/a/ b2 a2 | %14
 g3 a/b/ c'bag | fedb a/4g/4a/4g/4a/4g/4a/4g/4 a/4g/4a/4g/4 f/g/ | a4 e2 e2 | %17
 f/4e/4f/4e/4f/4e/4f/4e/4 f/4e/4f/4e/4 d/e/ f2 e2 | d4 d2 g2 | %19
 f/4e/4f/4e/4f/4e/4f/4e/4 f/4e/4f/4e/4 d/e/ fgef | d2 c2 e2 ^f/g/a | %21
 g/4^f/4g/4f/4g/4f/4g/4f/4 g/4f/4g/4f/4 e/f/ g2 a2 | b3 a/b/ c'bab | c'bag bag^f | g8- | g8- | %26
 g8- | gabg bag^f | g4 d2 d2 | d3 e/d/ ^cdec | defd efge | fefa gfed | ^cA=Bc de f2 | f8- | %34
 f4 e4- | e4 d4 | ^c2 de fg a2 | b/4a/4b/4a/4b/4a/4b/4a/4 b/4a/4b/4a/4 g/a/ b2 a2 | gbag fed^c | %39
 a4 e4 | d4 e2 e2 | f/4e/4f/4e/4f/4e/4f/4e/4 f/4e/4f/4e/4 d/e/ f2 e2 | d4 d2 g2 | %43
 f/4e/4f/4e/4f/4e/4f/4e/4 f/4e/4f/4e/4 d/e/ fgef | d2 c2 e2 ^f/g/a | %45
 g/4^f/4g/4f/4g/4f/4g/4f/4 g/4f/4g/4f/4 e/f/ g2 a2 | b3 a/b/ c'bab | c'bag bag^f | g8- | g8- | %50
 g8- | gabg bag^f | g4 d2 d2 | d3 e/d/ ^cdec | defd efge | fefa gfed | ^cA=Bc de f2 | f8- | %58
 f4 e4- | e4 d4 | ^c2 de fg a2 | b/4a/4b/4a/4b/4a/4b/4a/4 b/4a/4b/4a/4 g/a/ b2 a2 | gbag fed^c | %63
 a4 e4 ||[K:D] d4 f2 f2 | e/4f/4g/4f/4g/4f/4g/4f/4 g/4f/4g/4f/4 e/f/ g2 f2 | e4 e2 e2 | %67
 d/4e/4f/4e/4f/4e/4f/4e/4 f/4e/4f/4e/4 d/e/ fdec | d2 A2 f2 f2 | %69
 e/4f/4g/4f/4g/4f/4g/4f/4 g/4f/4g/4f/4 e/f/ g2 f2 | e2 ba gfed | cBAB cdec | d4 f2 f2 | %73
 e/4f/4g/4f/4g/4f/4g/4f/4 g/4f/4g/4f/4 e/f/ g2 f2 | e4 e2 e2 | %75
 d/4e/4f/4e/4f/4e/4f/4e/4 f/4e/4f/4e/4 d/e/ fdec | d2 A2 f2 f2 | %77
 e/4f/4g/4f/4g/4f/4g/4f/4 g/4f/4g/4f/4 e/f/ g2 f2 | e2 ba gfed | cBAB cdec | d4 a2 a2 | %81
 g/4a/4b/4a/4b/4a/4b/4a/4 b/4a/4b/4a/4 g/a/ bagf | g2 d2 g2 a2 | b=c'ba gfed | g4 e2 e2 | %85
 e3 f gagf | edcd efgb | agfe f/a/f/a/ f/a/f/a/ | e4 f2 f2 | %89
 e/4f/4g/4f/4g/4f/4g/4f/4 g/4f/4g/4f/4 e/f/ g2 f2 | e4 e2 e2 | %91
 d/4e/4f/4e/4f/4e/4f/4e/4 f/4e/4f/4e/4 d/e/ fdec | dAde f2 f2 | %93
 e/4f/4g/4f/4g/4f/4g/4f/4 g/4f/4g/4f/4 e/f/ gfed | ba^gf gabg | afed cBcA | d4 a2 a2 | %97
 g/4a/4b/4a/4b/4a/4b/4a/4 b/4a/4b/4a/4 g/a/ bagf | g2 d2 g2 a2 | b=c'ba gfed | g4 e2 e2 | %101
 e3 f gagf | edcd efgb | agfe f/a/f/a/ f/a/f/a/ | e4 f2 f2 | %105
 e/4f/4g/4f/4g/4f/4g/4f/4 g/4f/4g/4f/4 e/f/ g2 f2 | e4 e2 e2 | %107
 d/4e/4f/4e/4f/4e/4f/4e/4 f/4e/4f/4e/4 d/e/ fdec | dAde f2 f2 | %109
 e/4f/4g/4f/4g/4f/4g/4f/4 g/4f/4g/4f/4 e/f/ gfed | ba^gf gabg | afed cBcA |[K:F] d4 a2 a2 | %113
 b/4a/4b/4a/4b/4a/4b/4a/4 b/4a/4b/4a/4 g/a/ b2 a2 | g4 g2 g2 | gfga fefg | %116
 f/4e/4f/4e/4f/4e/4f/4e/4 d2 a2 a2 | b/4a/4b/4a/4b/4a/4b/4a/4 b/4a/4b/4a/4 g/a/ b2 a2 | %118
 g3 a/b/ c'bag | fedb a/4g/4a/4g/4a/4g/4a/4g/4 a/4g/4a/4g/4 f/g/ | a4 e2 e2 | %121
 f/4e/4f/4e/4f/4e/4f/4e/4 f/4e/4f/4e/4 d/e/ f2 e2 | d4 d2 g2 | %123
 f/4e/4f/4e/4f/4e/4f/4e/4 f/4e/4f/4e/4 d/e/ fgef | d2 c2 e2 ^f/g/a | %125
 g/4^f/4g/4f/4g/4f/4g/4f/4 g/4f/4g/4f/4 e/f/ g2 a2 | b3 a/b/ c'bab | c'bag bag^f | g8- | g8- | %130
 g8- | gabg bag^f | g4 d2 d2 | d3 e/d/ ^cdec | defd efge | fefa gfed | ^cA=Bc de f2 | f8- | %138
 f4 e4- | e4 d4 | ^c2 de fg a2 | b/4a/4b/4a/4b/4a/4b/4a/4 b/4a/4b/4a/4 g/a/ b2 a2 | gbag fed^c | %143
 a4 e4 | d4 z4 |] %145
V:2
 f2 e2 | f4 g2 f2 | e4 e2 e2 | e4 d4 | ^c2 dc dfeg | f4 g2 f2 | e4 e4 | d2 d2 d4 | ^c4 f2 e2 | %9
 f4 g2 f2 | e4 e2 e2 | e4 d4 | ^c2 dc dfeg | f4 g2 f2 | e4 e4 | d2 d2 d4 | ^c4 =c2 =B2 | c4 d2 c2 | %18
 =B4 B2 B2 | c4 d2 c2 | =B2 c2 c2 c2 | A4 d2 d2 | d8- | d8- | d_efd fedc | _edc=B cdec | %26
 _edcB dcBA | BcdB dcBA | B4 B2 A2 | G2 B2 A4- | A8- | A4 z4 | z4 A2 A2 | A3 G/A/ B2 A2 | %34
 G4 G2 G2 | GBAG FAGF | F/4E/4F/4E/4F/4E/4F/4E/4 D2 z2 de | f4 g2 f2 | e4 z4 | d4 ^c4 | d4 c2 =B2 | %41
 c4 d2 c2 | =B4 B2 B2 | c4 d2 c2 | =B2 c2 c2 c2 | A4 d2 d2 | d8- | d8- | d_efd fedc | _edc=B cdec | %50
 _edcB dcBA | BcdB dcBA | B4 B2 A2 | G2 B2 A4- | A8- | A4 z4 | z4 A2 A2 | A3 G/A/ B2 A2 | %58
 G4 G2 G2 | GBAG FAGF | F/4E/4F/4E/4F/4E/4F/4E/4 D2 z2 de | f4 g2 f2 | e4 z4 | d4 ^c4 || %64
[K:D] d4 x4 | x8 | x8 | x8 | x8 | x8 | x8 | x8 | x8 | x8 | x8 | x8 | x8 | x8 | x8 | x8 | x8 | x8 | %82
 x8 | x8 | x8 | x8 | x8 | x8 | x8 | x8 | x8 | x8 | x8 | x8 | x8 | x8 | x8 | x8 | x8 | x8 | x8 | %101
 x8 | x8 | x8 | x8 | x8 | x8 | x8 | x8 | x8 | x8 | x8 |[K:F] x4 f2 e2 | f4 g2 f2 | e4 e2 e2 | %115
 e4 d4 | ^c2 dc dfeg | f4 g2 f2 | e4 e4 | d2 d2 d4 | ^c4 =c2 =B2 | c4 d2 c2 | =B4 B2 B2 | %123
 c4 d2 c2 | =B2 c2 c2 c2 | A4 d2 d2 | d8- | d8- | d_efd fedc | _edc=B cdec | _edcB dcBA | %131
 BcdB dcBA | B4 B2 A2 | G2 B2 A4- | A8- | A4 z4 | z4 A2 A2 | A3 G/A/ B2 A2 | G4 G2 G2 | GBAG FAGF | %140
 F/4E/4F/4E/4F/4E/4F/4E/4 D2 z2 de | f4 g2 f2 | e4 z4 | d4 ^c4 | d4 x4 |] %145
V:3
 D,D^CA, | DA,D,C B,A,B,G, | CG,C,G, CDED | ^CA,=B,C DCDG, | A,A,,D,E, F,D,^C,A,, | %5
 D,A,,D,,C, B,,A,,B,,G,, | C,G,,C,,B,, A,,B,,C,A,, | D,E,F,D, B,A,B,B,, | A,,G,F,E, D,D^CA, | %9
 DA,D,C B,A,B,G, | CG,C,G, CDED | ^CA,=B,C DCDG, | A,A,,D,E, F,D,^C,A,, | D,A,,D,,C, B,,A,,B,,G,, | %14
 C,G,,C,,B,, A,,B,,C,A,, | D,E,F,D, B,A,B,B,, | A,,4 A,,A,^G,E, | A,E,A,,G, F,E,F,D, | %18
 G,D,G,,D, G,F,G,E, | A,G,F,E, D,=B,CF, | G,G,,C,B,, A,,B,,C,A,, | D,A,,D,,C, B,,A,,G,,^F,, | %22
 G,,B,,D,G, ^F,2 D,2 | G,2 B,,2 C,2 D,2 | =B,,2 G,2 A,2 =B,2 | C2 D2 _E2 C2 | G2 A2 B2 G2 | D8 | %28
 G,D,B,,D, G,,D,G,F, | E,F,G,E, A,B,A,G, | F,2 D,2 C,2 A,,2 | D,2 C,2 B,,2 G,,2 | %32
 A,,2 A,G, F,E,D,C, | B,,C,B,,A,, G,,A,,B,,G,, | C,G,,C,,G,, C,D,E,^B,, | %35
 ^C,/D,/ C,2 C, D,=C,B,,G,, | A,,2 D,,A,, D,E,F,^C, | D,A,,D,,C, B,,A,,B,,G,, | C,3 ^C, D,E,F,G, | %39
 F,,4 A,,4 | D,,4 A,,A,^G,E, | A,E,A,,G, F,E,F,D, | G,D,G,,D, G,F,G,E, | A,G,F,E, D,=B,CF, | %44
 G,G,,C,B,, A,,B,,C,A,, | D,A,,D,,C, B,,A,,G,,^F,, | G,,B,,D,G, ^F,2 D,2 | G,2 B,,2 C,2 D,2 | %48
 =B,,2 G,2 A,2 =B,2 | C2 D2 _E2 C2 | G2 A2 B2 G2 | D8 | G,D,B,,D, G,,D,G,F, | E,F,G,E, A,B,A,G, | %54
 F,2 D,2 C,2 A,,2 | D,2 C,2 B,,2 G,,2 | A,,2 A,G, F,E,D,C, | B,,C,B,,A,, G,,A,,B,,G,, | %58
 C,G,,C,,G,, C,D,E,^B,, | ^C,/D,/ C,2 C, D,=C,B,,G,, | A,,2 D,,A,, D,E,F,^C, | %61
 D,A,,D,,C, B,,A,,B,,G,, | C,3 ^C, D,E,F,G, | F,,4 A,,4 ||[K:D] D,,4[K:treble] ADFA | dD=cD BDAD | %66
 GDFD GDEG | cDBD ADGD | FDFG ADFA | dD=cD BDAD | GDFD EDFD | GDFD EDGD | FDFG ADFA | dD=cD BDAD | %74
 GDFD GDEG | cDBD ADGD | FDFG ADFA | dD=cD BDAD | GDFD EDFD | GDFD EDGD | FDED FDFA | dAFD GDAD | %82
 BD=cD BDAD | GDAD BD=cD | BDAD GDFD | GDAD BDAD | GDBD ADGD | FDGD ADBD | cDGc dADA | dD=cD BDAD | %90
 GDFD GDEG | cDBD ADGD | FDFG ADFA | dDAD BDFD | ^GDAD BDdD | cDBD ADGD | FDED FDFA | dAFD GDAD | %98
 BD=cD BDAD | GDAD BD=cD | BDAD GDFD | GDAD BDAD | GDBD ADGD | FDGD ADBD | cDGc dADA | dD=cD BDAD | %106
 GDFD GDEG | cDBD ADGD | FDFG ADFA | dDAD BDFD | ^GDAD BDdD | cDBD ADGD | %112
[K:F] ^F4[K:bass] D,D^CA, | DA,D,C B,A,B,G, | CG,C,G, CDED | ^CA,=B,C DCDG, | %116
 A,A,,D,E, F,D,^C,A,, | D,A,,D,,C, B,,A,,B,,G,, | C,G,,C,,B,, A,,B,,C,A,, | D,E,F,D, B,A,B,B,, | %120
 A,,4 A,,A,^G,E, | A,E,A,,G, F,E,F,D, | G,D,G,,D, G,F,G,E, | A,G,F,E, D,=B,CF, | %124
 G,G,,C,B,, A,,B,,C,A,, | D,A,,D,,C, B,,A,,G,,^F,, | G,,B,,D,G, ^F,2 D,2 | G,2 B,,2 C,2 D,2 | %128
 =B,,2 G,2 A,2 =B,2 | C2 D2 _E2 C2 | G2 A2 B2 G2 | D8 | G,D,B,,D, G,,D,G,F, | E,F,G,E, A,B,A,G, | %134
 F,2 D,2 C,2 A,,2 | D,2 C,2 B,,2 G,,2 | A,,2 A,G, F,E,D,C, | B,,C,B,,A,, G,,A,,B,,G,, | %138
 C,G,,C,,G,, C,D,E,^B,, | ^C,/D,/ C,2 C, D,=C,B,,G,, | A,,2 D,,A,, D,E,F,^C, | %141
 D,A,,D,,C, B,,A,,B,,G,, | C,3 ^C, D,E,F,G, | F,,4 A,,4 | D,,4 z4 |] %145
V:4
 x4 | x8 | x8 | x8 | x8 | x8 | x8 | x8 | x8 | x8 | x8 | x8 | x8 | x8 | x8 | x8 | x8 | x8 | x8 | %19
 x8 | x8 | x8 | x8 | x8 | x8 | x8 | x8 | x8 | x8 | x8 | x8 | x8 | x8 | x8 | x8 | x8 | x8 | x8 | %38
 x8 | x8 | x8 | x8 | x8 | x8 | x8 | x8 | x8 | x8 | x8 | x8 | x8 | x8 | x8 | x8 | x8 | x8 | x8 | %57
 x8 | x8 | x8 | x8 | x8 | x8 | x8 ||[K:D] x4[K:treble] x4 | x8 | x8 | x8 | x8 | x8 | x8 | x8 | x8 | %73
 x8 | x8 | x8 | x8 | x8 | x8 | x8 | x8 | x8 | x8 | x8 | x8 | x8 | x8 | x8 | x8 | x8 | x8 | x8 | %92
 x8 | x8 | x8 | x8 | x8 | x8 | x8 | x8 | x8 | x8 | x8 | x8 | x8 | x8 | x8 | x8 | x8 | x8 | x8 | %111
 x8 |[K:F] D4[K:bass] z4 | x8 | x8 | x8 | x8 | x8 | x8 | x8 | x8 | x8 | x8 | x8 | x8 | x8 | x8 | %127
 x8 | x8 | x8 | x8 | x8 | x8 | x8 | x8 | x8 | x8 | x8 | x8 | x8 | x8 | x8 | x8 | x8 | x8 |] %145

